X: 21361
Q: "Plaintive and slow."
M: C
L: 1/8
K: Am
V: 1 staves=2
e2(cd e2)a2 | (e<c)(B>c) A2(de) |\
f3e (ed)(dc) | (cB)(BA) {A}^G3e |\
e2(cd) e2a2 | (e<c)(B>c) A2(de) |\
(fd)(gc) (ed)(cB) | c4 z2e2 |
e2(cd e2) e2 | (dc)(Bc) d2f2 |\
e2(dc) B2A2 | {A}^G4 z2e2 |\
e2(cd) e2a2 | (dc)(Bc) d2f2 |\
e2(dc) (c2B)>A | A4 "^sym."f4 |\
e2(dc) (c2B)>A | A4 z2 |]
V: 2
c2 |\
c2(AB c2)(ed) | c<B^G2 A2A2 |\
c2(AB c2)(ed) | c<A^G2 A2(Ac) |
c2(BA) d2c2 | B4 z2c2 |\
c2(AB) c2c2 |
(BA)(^GA) B2d2 |\
c2(BA) A2^G>A | A4 "^sf"d4 |\
c2(BA) A2^G>A | A4 z2 |]


